assets/tag.svg

<?xml version="1.0" encoding="UTF-8"?>
<svg width="41px" height="41px" viewBox="0 0 41 41" version="1.1" xmlns="http://www.w3.org/2000/svg" xmlns:xlink="http://www.w3.org/1999/xlink">
    <!-- Generator: Sketch 51.2 (57519) - http://www.bohemiancoding.com/sketch -->
    <title>tag</title>
    <desc>Created with Sketch.</desc>
    <defs>
        <polygon id="path-1" points="0.00510638298 0.0567659574 47.9996099 0.0567659574 47.9996099 48.057406 0.00510638298 48.057406"></polygon>
    </defs>
    <g id="Page-1" stroke="none" stroke-width="1" fill="none" fill-rule="evenodd">
        <g id="Tickets-Copy" transform="translate(-424.000000, -152.000000)">
            <g id="menu" transform="translate(21.000000, 130.000000)">
                <g id="tickets" transform="translate(346.000000, 0.000000)">
                    <g id="tag" transform="translate(57.000000, 22.000000)">
                        <g id="Group-3">
                            <mask id="mask-2" fill="white">
                                <use xlink:href="#path-1"></use>
                            </mask>
                            <g id="Clip-2"></g>
                            <path d="M37.1099574,25.2092766 L25.1525106,37.1667234 C23.8581277,38.4610213 21.5319149,38.4610213 20.237617,37.1667234 L3.1453617,20.0744681 C2.28808511,19.2171915 1.81557447,18.0771915 1.81557447,16.8644255 L1.81557447,3.688 C1.81557447,2.68706383 2.63029787,1.87234043 3.63123404,1.87234043 L16.8076596,1.87234043 C18.0204255,1.87234043 19.1604255,2.34485106 20.0177021,3.20212766 L37.1099574,20.294383 C37.7571064,20.9415319 38.1276596,21.8369362 38.1276596,22.7518298 C38.1276596,23.6667234 37.7571064,24.5621277 37.1099574,25.2092766 Z M38.393617,19.0106383 L21.3014468,1.91846809 C20.1011064,0.71812766 18.5053617,0.0567659574 16.8076596,0.0567659574 L3.63123404,0.0567659574 C1.62851064,0.0567659574 0,1.6852766 0,3.688 L0,16.8644255 C0,18.5621277 0.661361702,20.1578723 1.86170213,21.3582128 L18.9538723,38.450383 C19.9388085,39.4353191 21.3022979,40 22.6950638,40 C24.0877447,40 25.451234,39.4353191 26.4361702,38.450383 L38.393617,26.4929362 C39.3785532,25.508 39.943234,24.1445106 39.943234,22.7518298 C39.943234,21.3590638 39.3785532,19.9955745 38.393617,19.0106383 Z" id="Fill-1" stroke="#BDC1C9" fill="#BDC1C9" mask="url(#mask-2)"></path>
                        </g>
                        <path d="M7.26238298,9.13480851 C6.26153191,9.13480851 5.44680851,8.32008511 5.44680851,7.31914894 C5.44680851,6.31829787 6.26153191,5.50357447 7.26238298,5.50357447 C8.26331915,5.50357447 9.07804255,6.31829787 9.07804255,7.31914894 C9.07804255,8.32008511 8.26331915,9.13480851 7.26238298,9.13480851 Z M7.26238298,3.688 C5.25974468,3.688 3.63123404,5.31651064 3.63123404,7.31914894 C3.63123404,9.32187234 5.25974468,10.950383 7.26238298,10.950383 C9.26510638,10.950383 10.893617,9.32187234 10.893617,7.31914894 C10.893617,5.31651064 9.26510638,3.688 7.26238298,3.688 Z" id="Fill-4" stroke="#BDC1C9" fill="#BDC1C9"></path>
                        <path d="M22.9610213,19.3865532 C22.606383,19.7411915 22.606383,20.3156596 22.9610213,20.6702128 L25.950383,23.6595745 L23.614383,25.9955745 C22.967234,25.3262979 21.8918298,24.2163404 20.6764255,22.9708085 C20.5070638,22.7970213 20.2748085,22.6986383 20.0319149,22.6968511 C19.7358298,22.6755745 19.5558298,22.7916596 19.384766,22.9628085 L16.3404255,26.0071489 L14.0044255,23.6711489 C14.6888511,23.008 15.8351489,21.8980426 17.1161702,20.6480851 C17.2890213,20.4787234 17.3883404,20.2482553 17.3900426,20.0053617 C17.3918298,19.7633191 17.2970213,19.5310638 17.1268085,19.3590638 C15.5975319,17.8165106 14.6613617,16.8891915 14.0594043,16.3307234 L16.3404255,14.0497021 L19.4157447,17.1250213 C19.770383,17.4796596 20.344,17.4805106 20.6968511,17.1276596 C22.2057021,15.631234 23.1178723,14.7110638 23.6693617,14.1161702 L25.950383,16.3971915 L22.9610213,19.3865532 Z M27.8759149,15.7553191 L24.2446809,12.1241702 C23.8900426,11.7695319 23.3155745,11.7695319 22.9610213,12.1241702 C22.8811915,12.2030638 22.82,12.2934468 22.7765957,12.3901277 C22.6250213,12.5754043 22.0726809,13.1914894 20.0594043,15.2012766 L16.9822979,12.1241702 C16.6276596,11.7695319 16.0531915,11.7695319 15.6985532,12.1241702 L12.0674043,15.7553191 C11.8900426,15.9326809 11.8014468,16.1649362 11.8014468,16.3971915 C11.8014468,16.6294468 11.8900426,16.8617021 12.0674043,17.0390638 C12.1462979,17.1179574 12.2358298,17.1791489 12.3324255,17.2234043 C12.5194894,17.3759149 13.1445106,17.9361702 15.1914894,19.9885106 C13.4379574,21.6959149 12.0798298,23.0053617 12.0798298,23.0053617 C11.9034043,23.1755745 11.8040851,23.4078298 11.8014468,23.6516596 C11.7996596,23.8945532 11.8954043,24.1294468 12.0674043,24.3014468 L15.6985532,27.9326809 C15.8759149,28.1099574 16.1081702,28.1986383 16.3404255,28.1986383 C16.5726809,28.1986383 16.8049362,28.1099574 16.9822979,27.9326809 L20.0186383,24.8971915 C21.6834894,26.6073191 22.9485957,27.9202553 22.9485957,27.9202553 C23.1178723,28.0957447 23.3510638,28.1959149 23.5948936,28.1986383 C23.8412766,28.164 24.0726809,28.1046809 24.2446809,27.9326809 L27.8759149,24.3014468 C28.2304681,23.9468085 28.2304681,23.3723404 27.8759149,23.0177872 L24.8865532,20.0284255 L27.8759149,17.0390638 C28.2304681,16.6844255 28.2304681,16.1099574 27.8759149,15.7553191 Z" id="Fill-5" stroke="#BDC1C9" fill="#BDC1C9"></path>
                    </g>
                </g>
            </g>
        </g>
    </g>
</svg>

<?xml version="1.0" encoding="UTF-8"?>
<svg version="1.1" viewBox="0 0 41 41" xmlns="http://www.w3.org/2000/svg" xmlns:xlink="http://www.w3.org/1999/xlink">
<title>tag</title>
<desc>Created with Sketch.</desc>
<defs>
<polygon id="a" points="0.0051064 0.056766 48 0.056766 48 48.057 0.0051064 48.057"/>
</defs>
<g fill="none" fill-rule="evenodd">
<g transform="translate(-424 -152)">
<g transform="translate(21 130)">
<g transform="translate(346)">
<g transform="translate(57 22)">
<mask id="b" fill="white">
<use xlink:href="#a"/>
</mask>
<path d="m37.11 25.209l-11.957 11.957c-1.2944 1.2943-3.6206 1.2943-4.9149 0l-17.092-17.092c-0.85728-0.85728-1.3298-1.9973-1.3298-3.21v-13.176c0-1.0009 0.81472-1.8157 1.8157-1.8157h13.176c1.2128 0 2.3528 0.47251 3.21 1.3298l17.092 17.092c0.64715 0.64715 1.0177 1.5426 1.0177 2.4574s-0.37055 1.8103-1.0177 2.4574zm1.2837-6.1986l-17.092-17.092c-1.2003-1.2003-2.7961-1.8617-4.4938-1.8617h-13.176c-2.0027 0-3.6312 1.6285-3.6312 3.6312v13.176c0 1.6977 0.66136 3.2934 1.8617 4.4938l17.092 17.092c0.98494 0.98494 2.3484 1.5496 3.7412 1.5496 1.3927 0 2.7562-0.56468 3.7411-1.5496l11.957-11.957c0.98494-0.98494 1.5496-2.3484 1.5496-3.7411 0-1.3928-0.56468-2.7563-1.5496-3.7412z" fill="#BDC1C9" mask="url(#b)" stroke="#BDC1C9"/>
<path d="m7.2624 9.1348c-1.0009 0-1.8156-0.81472-1.8156-1.8157 0-1.0009 0.81472-1.8156 1.8156-1.8156 1.0009 0 1.8157 0.81472 1.8157 1.8156 0 1.0009-0.81472 1.8157-1.8157 1.8157zm0-5.4468c-2.0026 0-3.6311 1.6285-3.6311 3.6311 0 2.0027 1.6285 3.6312 3.6311 3.6312 2.0027 0 3.6312-1.6285 3.6312-3.6312 0-2.0026-1.6285-3.6311-3.6312-3.6311z" fill="#BDC1C9" stroke="#BDC1C9"/>
<path d="m22.961 19.387c-0.35464 0.35464-0.35464 0.92911 0 1.2837l2.9894 2.9894-2.336 2.336c-0.64715-0.66928-1.7226-1.7792-2.938-3.0248-0.16936-0.17379-0.40162-0.27217-0.64451-0.27396-0.29609-0.021277-0.47609 0.094808-0.64715 0.26596l-3.0443 3.0443-2.336-2.336c0.68443-0.66315 1.8307-1.7731 3.1117-3.0231 0.17285-0.16936 0.27217-0.39983 0.27387-0.64272 0.0017872-0.24204-0.093021-0.4743-0.26323-0.6463-1.5293-1.5426-2.4654-2.4699-3.0674-3.0283l2.281-2.281 3.0753 3.0753c0.35464 0.35464 0.92826 0.35549 1.2811 0.0026383 1.5089-1.4964 2.421-2.4166 2.9725-3.0115l2.281 2.281-2.9894 2.9894zm4.9149-3.6312l-3.6312-3.6311c-0.35464-0.35464-0.92911-0.35464-1.2837 0-0.07983 0.078894-0.14102 0.16928-0.18443 0.26596-0.15157 0.18528-0.70391 0.80136-2.7172 2.8111l-3.0771-3.0771c-0.35464-0.35464-0.92911-0.35464-1.2837 0l-3.6311 3.6311c-0.17736 0.17736-0.26596 0.40962-0.26596 0.64187s0.088596 0.46451 0.26596 0.64187c0.078894 0.078894 0.16843 0.14009 0.26502 0.18434 0.18706 0.15251 0.81209 0.71277 2.8591 2.7651-1.7535 1.7074-3.1117 3.0169-3.1117 3.0169-0.17643 0.17021-0.27574 0.40247-0.27838 0.6463-0.0017872 0.24289 0.093958 0.47779 0.26596 0.64979l3.6311 3.6312c0.17736 0.17728 0.40962 0.26596 0.64187 0.26596 0.23226 0 0.46451-0.088681 0.64187-0.26596l3.0363-3.0355c1.6649 1.7101 2.93 3.0231 2.93 3.0231 0.16928 0.17549 0.40247 0.27566 0.6463 0.27838 0.24638-0.034638 0.47779-0.093957 0.64979-0.26596l3.6312-3.6312c0.35455-0.35464 0.35455-0.92911 0-1.2837l-2.9894-2.9894 2.9894-2.9894c0.35455-0.35464 0.35455-0.92911 0-1.2837z" fill="#BDC1C9" stroke="#BDC1C9"/>
</g>
</g>
</g>
</g>
</g>
</svg>
